src/icon/file/format-jpg/icon_format-jpg_l_white.svg

<svg xmlns="http://www.w3.org/2000/svg" width="30" height="30" viewBox="0 0 30 30" fill="none"><rect width="30" height="30" fill="none"/><path fill-rule="evenodd" clip-rule="evenodd" d="M19 28H6C4.96133 27.9987 3.96378 27.594 3.21785 26.8712C2.47192 26.1484 2.03597 25.1641 2.002 24.126H2V8.293L8.293 2H19C21.206 2 23 3.794 23 6V11H22V6C22 4.346 20.654 3 19 3H8.707L3 8.707V24C3 25.654 4.346 27 6 27H19C20.654 27 22 25.654 22 24H23C23 26.206 21.206 28 19 28Z" fill="white"/><path d="M11.0819 14.094H11.9999V18.918C11.9999 19.57 11.7999 20.08 11.4009 20.448C11.0049 20.816 10.4759 21 9.81286 21C9.12486 21 8.58986 20.827 8.20586 20.48C7.82286 20.134 7.63086 19.65 7.63086 19.025H8.54386C8.54386 19.415 8.65186 19.72 8.86686 19.938C9.08586 20.156 9.40086 20.265 9.81286 20.265C10.1899 20.265 10.4939 20.148 10.7259 19.915C10.9599 19.68 11.0789 19.353 11.0819 18.932V14.094V14.094ZM15.4129 18.24V20.906H14.4999V14.094H17.0529C17.8109 14.094 18.4029 14.284 18.8309 14.664C19.2619 15.045 19.4779 15.549 19.4779 16.176C19.4779 16.837 19.2669 17.347 18.8449 17.706C18.4269 18.061 17.8259 18.239 17.0439 18.239H15.4129V18.24ZM15.4129 17.505H17.0529C17.5409 17.505 17.9149 17.392 18.1749 17.168C18.4349 16.94 18.5649 16.613 18.5649 16.185C18.5649 15.78 18.4349 15.455 18.1749 15.212C17.9149 14.969 17.5579 14.842 17.1049 14.832H15.4129V17.505V17.505ZM26.1649 20.013C25.9299 20.343 25.6019 20.591 25.1809 20.757C24.7619 20.919 24.2739 21 23.7159 21C23.1892 21.0095 22.67 20.8753 22.2139 20.612C21.774 20.3471 21.4207 19.9601 21.1969 19.498C20.9589 19.018 20.8369 18.461 20.8309 17.828V17.233C20.8309 16.207 21.0729 15.411 21.5579 14.847C22.0459 14.282 22.7309 14 23.6119 14C24.3339 14 24.9159 14.182 25.3569 14.547C25.7969 14.909 26.0669 15.424 26.1649 16.092H25.2519C25.0809 15.19 24.5359 14.739 23.6169 14.739C23.0049 14.739 22.5409 14.951 22.2239 15.376C21.9099 15.796 21.7509 16.408 21.7479 17.21V17.767C21.7479 18.531 21.9259 19.139 22.2809 19.592C22.6359 20.041 23.1159 20.265 23.7209 20.265C24.0639 20.265 24.3629 20.228 24.6199 20.153C24.8759 20.078 25.0889 19.952 25.2569 19.774V18.244H23.6549V17.514H26.1649V20.013Z" fill="white" fill-opacity="0.9"/></svg>

<svg width="30" height="30" viewBox="0 0 30 30" fill="none" xmlns="http://www.w3.org/2000/svg"><path d="M0 0h30v30H0z"/><path fill-rule="evenodd" clip-rule="evenodd" d="M19 28H6a4.005 4.005 0 01-3.998-3.874H2V8.293L8.293 2H19c2.206 0 4 1.794 4 4v5h-1V6c0-1.654-1.346-3-3-3H8.707L3 8.707V24c0 1.654 1.346 3 3 3h13c1.654 0 3-1.346 3-3h1c0 2.206-1.794 4-4 4z" fill="#fff"/><path d="M11.082 14.094H12v4.824c0 .652-.2 1.162-.599 1.53-.396.368-.925.552-1.588.552-.688 0-1.223-.173-1.607-.52-.383-.346-.575-.83-.575-1.455h.913c0 .39.108.695.323.913.219.218.534.327.946.327.377 0 .681-.117.913-.35.234-.235.353-.562.356-.983v-4.838zm4.331 4.146v2.666H14.5v-6.812h2.553c.758 0 1.35.19 1.778.57.431.381.647.885.647 1.512 0 .661-.211 1.171-.633 1.53-.418.355-1.019.533-1.801.533h-1.631zm0-.735h1.64c.488 0 .862-.113 1.122-.337.26-.228.39-.555.39-.983 0-.405-.13-.73-.39-.973s-.617-.37-1.07-.38h-1.692v2.673zm10.752 2.508c-.235.33-.563.578-.984.744-.419.162-.907.243-1.465.243a2.9 2.9 0 01-1.502-.388 2.648 2.648 0 01-1.017-1.114c-.238-.48-.36-1.037-.366-1.67v-.595c0-1.026.242-1.822.727-2.386.488-.565 1.173-.847 2.054-.847.722 0 1.304.182 1.745.547.44.362.71.877.808 1.545h-.913c-.171-.902-.716-1.353-1.635-1.353-.612 0-1.076.212-1.393.637-.314.42-.473 1.032-.476 1.834v.557c0 .764.178 1.372.533 1.825.355.449.835.673 1.44.673.343 0 .642-.037.899-.112.256-.075.469-.201.637-.379v-1.53h-1.602v-.73h2.51v2.499z" fill="#fff" fill-opacity=".9"/></svg>
